X: 3
T: Carolan's Draught
R: reel
M: 4/4
L: 1/8
K: Gmaj
G/A/B/c/ d/e/f/d/ gf/e/ dd | eEdD c/B/A/G/ F/G/A/F/ | G/A/B/c/ d/e/f/d/ gf/e/ dd | fe/d/ A^c d4 :|
b/a/g/f/ g/a/b/g/ f/g/a/f/ ^d^c/B/ | ef/g/ a/f/g/e/ ^d/e/f/d/ Bg/a/ | bBaA gGfF | Ee/f/ g/e/f/d/ e2f2 |
g/f/e/d/ c/B/A/G/ ed dc/B/ | cB BA/G/ ed dc/B/ | cB/c/ A/B/G/A/ F/G/A/F/ DD | G/A/B/c/ d/e/f/d/ gf/e/ dd |
G/A/B/c/ d/e/f/d/ gf/e/ dd | e/f/g/e/ c/d/e/c/ A/B/c/A/ F/G/A/F/ | D/E/F/G/ A/B/c/A/ B/G/F/G/ gf/e/ | d/B/c/A/ B/G/A/F/ G4 ||


Tune 1421	Setting 14792

